X:1
T: Miss Rae of Eskgrove
C:
R:Jig
Q:180
K:C
M:6/8
L:1/16
|:E2|C4c2 c2G2E2|c2G2E2 C4E2|C4c2 c2B2c2|d2D2D2 D4E2|C4c2 c2G2E2|G2A2B2 c2G2E2|F2d2F2 E2c2E2|d2D2D2 D4E2|
C4c2 c2G2E2|c2G2E2 C4E2|C4c2 c2B2c2|d2D2D2 D4E2|C4c2 c2G2E2|G2A2B2 c2G2E2|F2d2F2 E2c2E2|d2D2D2 D4e2|
c4g2 g2e2a2|g2e2c2 c4e2|c2e2g2 g2e2g2|a2f2d2 d4e2|c4g2 g2e2g2|a2g2f2 e2d2c2|fga2f2 efg2e2|a2f2d2 d4e2|
c4g2 g2e2a2|g2e2c2 c4e2|c2e2g2 g2e2g2|a2f2d2 d4f2|e3fg2 d2e2f2|e2d2c2 d2B2G2|A3Bc2 G2E2c2|G2E2C2 C4:|
